img/image/catalogue-value.svg

<svg width="23" height="18" viewBox="0 0 23 18" fill="none" xmlns="http://www.w3.org/2000/svg">
<g opacity="0.6">
<path d="M12.8373 17H18.9259C19.2526 17 19.5175 16.7185 19.5175 16.3712V8.06812C19.5175 7.88158 19.4396 7.70469 19.3048 7.58527L15.6699 4.36451C15.5636 4.27028 15.4295 4.21865 15.291 4.21865H6.14924C6.03079 4.21866 5.91509 4.25643 5.81712 4.32706L3.59565 5.92818C3.51568 5.98589 3.45022 6.06349 3.40498 6.15419C3.35975 6.24489 3.33611 6.34596 3.33614 6.44857V12.9183C3.33614 13.1566 3.4629 13.3744 3.66355 13.4809L10.1734 16.9338C10.2554 16.9774 10.3459 17 10.4376 17H11.4268" stroke="#D9D9D9" stroke-width="0.5" stroke-miterlimit="10" stroke-linecap="round" stroke-linejoin="round"/>
<path d="M20.9466 15.2422H19.5176V9.62655H20.9466V15.2422Z" stroke="#D9D9D9" stroke-width="0.5" stroke-miterlimit="10" stroke-linecap="round" stroke-linejoin="round"/>
<path d="M22.3537 11.9939V15.9797C22.3537 16.3919 22.0387 16.7261 21.6502 16.7261C21.2616 16.7261 20.9466 16.3919 20.9466 15.9797V8.88933C20.9466 8.47711 21.2616 8.14298 21.6502 8.14298C22.0387 8.14298 22.3537 8.47711 22.3537 8.88933V10.5012" stroke="#D9D9D9" stroke-width="0.5" stroke-miterlimit="10" stroke-linecap="round" stroke-linejoin="round"/>
<path d="M1.20354 14.1079C0.814966 14.1079 0.5 13.7738 0.5 13.3616V6.27117C0.5 5.85895 0.814966 5.52481 1.20354 5.52481C1.59211 5.52481 1.90708 5.85895 1.90708 6.27117V13.3616C1.90708 13.7738 1.59211 14.1079 1.20354 14.1079Z" stroke="#D9D9D9" stroke-width="0.5" stroke-miterlimit="10" stroke-linecap="round" stroke-linejoin="round"/>
<path d="M10.0096 0.999963H14.2391C14.6276 0.999963 14.9426 1.3341 14.9426 1.74632C14.9426 2.15854 14.6276 2.49268 14.2391 2.49268H7.55544C7.16686 2.49268 6.8519 2.15854 6.8519 1.74632C6.8519 1.3341 7.16686 0.999963 7.55544 0.999963H8.60257" stroke="#D9D9D9" stroke-width="0.5" stroke-miterlimit="10" stroke-linecap="round" stroke-linejoin="round"/>
<path d="M11.5568 4.21878H10.2376V2.49283H11.5568V4.21878ZM1.90707 9.00769H3.33614V10.4071H1.90707V9.00769Z" stroke="#D9D9D9" stroke-width="0.5" stroke-miterlimit="10" stroke-linecap="round" stroke-linejoin="round"/>
<path d="M12.8271 7.10675L9.6569 9.51277C9.63919 9.52621 9.62441 9.54355 9.61359 9.5636C9.60277 9.58365 9.59615 9.60595 9.59419 9.62896C9.59224 9.65198 9.59498 9.67517 9.60225 9.69695C9.60951 9.71874 9.62112 9.7386 9.63628 9.75519L10.4332 10.6277C10.452 10.6483 10.4653 10.6739 10.4716 10.7018C10.4779 10.7297 10.4771 10.7589 10.4692 10.7864L9.76001 13.252C9.71842 13.3968 9.87131 13.5167 9.98959 13.4321L13.3392 11.0335C13.3573 11.0205 13.3726 11.0035 13.384 10.9837C13.3953 10.9638 13.4025 10.9416 13.405 10.9186C13.4074 10.8956 13.4052 10.8722 13.3984 10.8502C13.3916 10.8281 13.3803 10.8079 13.3654 10.7909L12.3789 9.66451C12.3603 9.64325 12.3474 9.61703 12.3417 9.58865C12.336 9.56026 12.3377 9.53077 12.3465 9.5033L13.0585 7.28928C13.1061 7.1414 12.9469 7.01588 12.8271 7.10675Z" stroke="#D9D9D9" stroke-width="0.5" stroke-miterlimit="10" stroke-linecap="round" stroke-linejoin="round"/>
</g>
</svg>

<svg width="23" height="18" fill="none" xmlns="http://www.w3.org/2000/svg"><g opacity=".6" stroke="#D9D9D9" stroke-width=".5" stroke-miterlimit="10" stroke-linecap="round" stroke-linejoin="round"><path d="M12.837 17h6.089c.327 0 .591-.282.591-.629V8.068a.645.645 0 0 0-.212-.483l-3.635-3.22a.57.57 0 0 0-.379-.146H6.149a.567.567 0 0 0-.332.108L3.596 5.928a.618.618 0 0 0-.191.226.66.66 0 0 0-.069.295v6.47c0 .238.127.455.328.562l6.51 3.453a.562.562 0 0 0 .264.066h.989"/><path d="M20.947 15.242h-1.43V9.627h1.43v5.615ZM22.354 11.994v3.986c0 .412-.315.746-.704.746-.388 0-.703-.334-.703-.746V8.89c0-.413.315-.747.703-.747.389 0 .704.334.704.746v1.612M1.204 14.108c-.389 0-.704-.334-.704-.746v-7.09c0-.413.315-.747.704-.747.388 0 .703.334.703.746v7.09c0 .413-.315.747-.703.747ZM10.01 1h4.23c.388 0 .703.334.703.746 0 .413-.315.747-.704.747H7.555c-.388 0-.703-.334-.703-.747 0-.412.315-.746.703-.746h1.048"/><path d="M11.557 4.219h-1.32V2.493h1.32v1.726Zm-9.65 4.789h1.43v1.4h-1.43v-1.4ZM12.827 7.107l-3.17 2.406a.168.168 0 0 0-.02.242l.796.873c.019.02.032.046.039.074a.17.17 0 0 1-.003.084l-.709 2.466c-.042.145.111.265.23.18l3.35-2.399a.159.159 0 0 0 .065-.114.172.172 0 0 0-.04-.128l-.986-1.126a.17.17 0 0 1-.032-.161l.711-2.215c.048-.148-.111-.273-.23-.182Z"/></g></svg>
